X:1
T:Jackson
T:Jackson
T:Billy Ed Wheeler and Gaby Jackson
C:Billy Ed Wheeler, Gaby Rogers
Z:All Rights Reserved
L:1/8
M:4/4
K:F
V:1 treble nm="Electric Piano"
%%MIDI program 4
V:1
"F" c2 c2 _AGFD |"Bb" F2 FD F"C7" G3 |"F" C2 c2 _AGFD |"Bb" FC^CD-"C" D z2 F || z8 |: %5
w: |||||
w: |||||
"F" c c2 c cAcA | cd z2 z4 | cc c2 Ac c2 | A2 z2 z4 | c c2 c cA c2 | z2 c2 d2 z2 | dccc c2 cA- | %12
w: 1.We got mar * ried in a|fev- er-|hot- ter than a pep- per|sprout|we've been talk * in bout|Jack- son|ev- er since the fire went out|
w: 2.I breeze in * * to that|cit- y-|peo- ple gon- na stoop and|bow|all them so- * men goin|beg me|teach em what they dont know how|
"F7" A2 A2 A3 F |"Bb" D F3 z4 | z FGF"Bb7" _A F2 =A- |"F" A4 z4 |"F7" z2 A2 A G2 F | %17
w: * I'm goin to|Jack- son|I'm gon- na mess a- round||Yeah I'm goin to|
w: * I'm going to|Jack- son|You turn a- loose my coat||cause I'm goin to|
"Bb" D"Bb7" F3 z4 |"C7" C G3 _A2 G2 |"F" F8- |"Bb" F2"F" z2"Bb" z2"C7" c2 |"F" c c3 c3 A | %22
w: Jack- son|Look out Jack- son|town|2. Well|go on down to|
w: Jack- son|Good- by thatsall she|wrote|* 4.They'll|laugh at you in|
 c2 d2 z2 cc | c c3 d c3 | A2 z2 z2 z c | c c2 c c3 c | d d2 A c2 cd | _e2 d2 c d2 A- | %28
w: Jack- son go a-|head and wreck your|health *|go play your hand ya|big talk- in man make a|big fool of your- self|
w: Jack- son I'll be|danc- inona pon- y|keg they'll|lead you round town a|scold- ed * hound with you|tail tucked twee your legs|
"F7" A2 AA- A2 GF |"Bb" D F3 z4 |"Bb7" z2 (3z _AA A F2 =A- |"F" A2 z2 z4 |"F7" z2 GF G2 F2 | %33
w: * yeah yeah * go the|Jack- son|but go comb your hair||go and snow- ball|
w: * yeah yeah * go to|Jack- son|you big talk- in man||I'll be wait- in|
"Bb" D F3"Bb7" z4 |"C7" GGGG _A=A A2 |1"F" F8- || F2 z2 z2 z"C7" c :|2"F" F8- || F6 z2 |] %39
w: Jack- son|go a- head and see if I|care|* when|fan.||
w: Jack son|be * hind my Jay- * pan||3. *|||

